X: 43452
T: Ye Banks And Braes
R: waltz
M: 3/4
K: Gmajor
|:D2|G4 G2|A2 G2 A2|B2 d2 B2|A2 G2 A2|B3 A G2|E4 F2|G6-|1 G5:|2 G2 B2 c2||
d4 e2|d2 B2 G2|d4 e2|d2 B2 G2|G2 B2 d2|e2 d2 B2|A6-|A4|
D2|G4 G2|A2 G2 A2|B2 d2 B2|A2 G2 A2|B3 A G2|E4 F2|G6-|G5||

